icons/meteorjs-dark.svg

<svg xmlns="http://www.w3.org/2000/svg" width="256" height="256" fill="none"><rect width="256" height="256" fill="#282828" rx="60"/><path fill="#DE4F4F" d="M186.87 196.697 46 47l149.692 140.87a6.24 6.24 0 0 1 .267 8.823 6.24 6.24 0 0 1-8.824.267l-.265-.265m-20.729 10.588L59.922 92.213l115.044 106.219a6.244 6.244 0 1 1-8.471 9.173l-.354-.35m-21.501.258-70.59-76.414 76.468 70.59a4.16 4.16 0 0 1 .237 5.878c-1.557 1.683-4.195 1.794-5.878.237l-.237-.258m59.147-52.909-73.698-79.582 79.577 73.699a4.155 4.155 0 0 1 .224 5.878 4.163 4.163 0 0 1-5.878.225l-.225-.225m-6.36 22.281L90.744 61.412l115.5 106.683a6.243 6.243 0 1 1-8.471 9.171l-.351-.351m-74.787 24.382-33.58-36.522 36.522 33.583a2.085 2.085 0 0 1 .129 2.939 2.087 2.087 0 0 1-2.942.123l-.124-.123m78.513-73.101-33.581-36.522 36.52 33.58a2.08 2.08 0 0 1-1.322 3.608 2.1 2.1 0 0 1-1.496-.545l-.124-.124"/></svg>

<svg width="256" height="256" viewBox="0 0 256 256" fill="none" xmlns="http://www.w3.org/2000/svg">
<rect width="256" height="256" rx="60" fill="#282828" />
<path d="M186.87 196.697L46 47L195.692 187.87C196.898 189.004 197.603 190.572 197.653 192.226C197.703 193.881 197.094 195.488 195.959 196.693C194.824 197.899 193.257 198.604 191.602 198.654C189.948 198.704 188.341 198.095 187.135 196.96L186.87 196.695M166.141 207.283L59.922 92.2129L174.966 198.432C176.183 199.556 176.903 201.116 176.969 202.771C177.035 204.425 176.44 206.038 175.317 207.255C174.761 207.857 174.091 208.344 173.347 208.687C172.602 209.031 171.798 209.225 170.978 209.257C169.324 209.323 167.711 208.729 166.495 207.605L166.141 207.255M144.64 207.513L74.0502 131.099L150.518 201.689C152.209 203.248 152.312 205.883 150.755 207.567C149.198 209.25 146.56 209.361 144.877 207.804L144.64 207.546M203.787 154.637L130.089 75.0553L209.666 148.754C211.352 150.316 211.455 152.951 209.89 154.632C208.325 156.313 205.695 156.419 204.012 154.857L203.787 154.632M197.427 176.913L90.7437 61.4118L206.244 168.095C207.461 169.219 208.18 170.779 208.246 172.434C208.312 174.088 207.717 175.7 206.594 176.916C205.47 178.133 203.91 178.853 202.256 178.918C200.601 178.984 198.989 178.389 197.773 177.266L197.422 176.915M122.635 201.297L89.055 164.775L125.577 198.358C125.982 198.731 126.223 199.25 126.247 199.801C126.271 200.351 126.076 200.889 125.706 201.297C125.331 201.702 124.812 201.942 124.261 201.965C123.709 201.988 123.171 201.792 122.764 201.42L122.64 201.297M201.153 128.196L167.572 91.674L204.092 125.254C204.937 126.036 204.994 127.35 204.215 128.193C203.841 128.598 203.321 128.839 202.77 128.862C202.219 128.885 201.681 128.689 201.274 128.317L201.15 128.193" fill="#DE4F4F"/>
</svg>
